X: 1134
T: &quot;Bill Sutherland's March&quot;
M: 4/4
L: 1/8
R: march / barndance / schottische
K: Dmaj
|: B>c | 
d2 F2 A3 F | d2 F2 AB/A/ FE | D3 A B>AGF | G2 E2 E2 E>F | 
GA/G/ E2 B2 E2 | G3 E B4 |[1 g>fed cded | c2 A2 B2- :|[2 cBAB c>dec | d2 d2 d2 |]
|: g/f/e | 
d2 f2 g>fed | d2 f2 A2 fe | d2 f2 g2 f/e/d | c2 e2 A2 A>B | 
c2 A2 e3 A | c2 A2 e4 |[1 g>fed cdf/e/d | c2 A2 f2 :|[2 gfed c>dec | d2 d2 d2 |]
